web/www/src/assets/img/instellingen/weergave.svg

<svg fill="none" height="32" viewBox="0 0 32 32" width="32" xmlns="http://www.w3.org/2000/svg"><g fill="#000"><path d="m16 20c2.2091 0 4-1.7909 4-4s-1.7909-4-4-4-4 1.7909-4 4 1.7909 4 4 4z"/><path d="m30.94 15.66c-1.1762-3.0424-3.218-5.67338-5.8732-7.56791s-5.8073-2.96952-9.0668-3.09209c-3.2595.12257-6.41161 1.19756-9.0668 3.09209-2.65518 1.89453-4.69704 4.52551-5.8732 7.56791-.079431.2197-.079431.4603 0 .68 1.17616 3.0424 3.21802 5.6734 5.8732 7.5679 2.65519 1.8945 5.8073 2.9695 9.0668 3.0921 3.2595-.1226 6.4116-1.1976 9.0668-3.0921s4.697-4.5255 5.8732-7.5679c.0794-.2197.0794-.4603 0-.68zm-14.94 6.84c-1.2856 0-2.5423-.3812-3.6112-1.0954-1.0689-.7143-1.902-1.7294-2.39401-2.9172-.49197-1.1877-.6207-2.4946-.36989-3.7555.2508-1.2609.8699-2.4191 1.7789-3.3281s2.0672-1.5281 3.3281-1.7789c1.2609-.25081 2.5678-.12209 3.7555.36988 1.1878.49202 2.2029 1.32512 2.9172 2.39402.7142 1.0689 1.0954 2.3256 1.0954 3.6112-.0026 1.7231-.6883 3.3749-1.9067 4.5933s-2.8702 1.9041-4.5933 1.9067z"/></g></svg>

<svg width="32" height="32" viewBox="0 0 32 32" fill="none" xmlns="http://www.w3.org/2000/svg">
<path d="M16 20C18.2091 20 20 18.2091 20 16C20 13.7909 18.2091 12 16 12C13.7909 12 12 13.7909 12 16C12 18.2091 13.7909 20 16 20Z" fill="black"/>
<path d="M30.94 15.66C29.7638 12.6176 27.722 9.98662 25.0668 8.09209C22.4116 6.19756 19.2595 5.12257 16 5C12.7405 5.12257 9.58839 6.19756 6.9332 8.09209C4.27802 9.98662 2.23616 12.6176 1.06 15.66C0.980569 15.8797 0.980569 16.1203 1.06 16.34C2.23616 19.3824 4.27802 22.0134 6.9332 23.9079C9.58839 25.8024 12.7405 26.8774 16 27C19.2595 26.8774 22.4116 25.8024 25.0668 23.9079C27.722 22.0134 29.7638 19.3824 30.94 16.34C31.0194 16.1203 31.0194 15.8797 30.94 15.66ZM16 22.5C14.7144 22.5 13.4577 22.1188 12.3888 21.4046C11.3199 20.6903 10.4868 19.6752 9.99479 18.4874C9.50282 17.2997 9.37409 15.9928 9.6249 14.7319C9.8757 13.471 10.4948 12.3128 11.4038 11.4038C12.3128 10.4948 13.471 9.8757 14.7319 9.6249C15.9928 9.37409 17.2997 9.50281 18.4874 9.99478C19.6752 10.4868 20.6903 11.3199 21.4046 12.3888C22.1188 13.4577 22.5 14.7144 22.5 16C22.4974 17.7231 21.8117 19.3749 20.5933 20.5933C19.3749 21.8117 17.7231 22.4974 16 22.5Z" fill="black"/>
</svg>
